!!!COM:	la Rue, Pierre de
!!!CDT:	~1452///-1518/11/20
!!!OPR:	Missa De beata virgine
!!!ONM:	4
!!!OTL:	Sanctus
!!!AGN:	Mass; Sanctus
!!!SCT:	Rue1008d
!!!SCA:	Rue1008d
!!!voices:	4
!!!voices-OPR:	4
**kern	**kern	**kern	**kern
*staff4	*staff3	*staff2	*staff1
*Ivox	*Ivox	*Ivox	*Ivox
*I"Bassus	*I"Tenor	*I"Contra	*I"Discantus
*I'B	*I'T	*I'C	*I'D
*>[A,B,C,D]	*>[A,B,C,D]	*>[A,B,C,D]	*>[A,B,C,D]
*>A	*>A	*>A	*>A
*clefF4	*clefGv2	*clefGv2	*clefG2
*k[b-]	*k[b-]	*k[b-]	*k[b-]
*M2/1	*M2/1	*M2/1	*M2/1
*met(C|)	*met(C|)	*met(C|)	*met(C|)
!!section: Sanctus
!!!OMD: Sanctus
=1-	=1-	=1-	=1-
1c	[0c	0r	0r
2c\	.	.	.
[2A\	.	.	.
=2	=2	=2	=2
2A\]	0c_	1c	1r
4G\	.	.	.
4F\	.	.	.
1F	.	2c\	1cc
.	.	[2A/	.
=3	=3	=3	=3
1r	0c_	2A/]	2cc\
.	.	4G/	1a
.	.	4F/	.
2r	.	1F	.
2F\	.	.	4g/
.	.	.	4f/
=4	=4	=4	=4
2E\	0c]	1r	2g/
2.F\	.	.	2f/
.	.	1F	1cc
4G\	.	.	.
2A\	.	.	.
=5	=5	=5	=5
2.F\	1A	2F/	1dd
.	.	1A	.
4E\	.	.	.
1D	1F	.	1ff
.	.	2B-\	.
=6	=6	=6	=6
[0C	[0G	2.c\	0ee
.	.	4d\	.
.	.	4e\	.
.	.	4f\	.
.	.	[2g\	.
=7	=7	=7	=7
0C]	0G]	2g\]	1r
.	.	1f	.
.	.	.	1cc
.	.	2e\	.
=8	=8	=8	=8
1r	0F	1f	2cc\
.	.	.	1a
1F	.	2r	.
.	.	2f\	4g/
.	.	.	4f/
=9	=9	=9	=9
2C/	0c	2e\	2g/
2.F\	.	2.a\	2f/
.	.	.	2.cc\
4G\	.	4g\	.
2A\	.	2e\	.
.	.	.	4b-\
=10	=10	=10	=10
2.F\	1c	2f\	2a/
.	.	2c\	1g
4E\	.	.	.
1D	2B-\	2.d\	.
.	[2A/	.	2f/
.	.	4c\	.
=11	=11	=11	=11
0C	2A/]	2.A/	2e/
.	4G/	.	1f
.	4F/	4B-\	.
.	1G	1c	.
.	.	.	2e/
=12	=12	=12	=12
1r	[0F	0r	0f
1F	.	.	.
=13	=13	=13	=13
2F\	0F]	1F	1r
1A	.	.	.
.	.	2F/	1f
4G\	.	[2A/	.
4F\	.	.	.
=14	=14	=14	=14
2.A\	0r	2A/]	2f/
.	.	4G/	1a
4B-\	.	4F/	.
1c	.	2.A/	.
.	.	.	4g/
.	.	4B-\	4f/
=15	=15	=15	=15
0F	1r	1.c	2.a/
.	.	.	4b-\
.	1F	.	1cc
.	.	4d\	.
.	.	4e\	.
=16	=16	=16	=16
0r	2F/	0f	2r
.	1A	.	1cc
.	4G/	.	4b-\
.	4F/	.	4a/
=17	=17	=17	=17
0r	2.A/	1.e	2.cc\
.	4B-\	.	4dd\
.	1c	.	1ee
.	.	4f\	.
.	.	4g\	.
=18	=18	=18	=18
0F	2r	0a	0ff
.	1c	.	.
.	4B-\	.	.
.	4A/	.	.
=19	=19	=19	=19
0C	2.c\	0g	1ee
.	4d\	.	.
.	1e	.	4ee\
.	.	.	4dd\
.	.	.	4cc\
.	.	.	4b-\
=20	=20	=20	=20
2.F\	0f	0r	2.a/
4G\	.	.	4b-\
2A\	.	.	2cc\
2B-\	.	.	[2dd\
=21	=21	=21	=21
1c	1e	0g	2dd\]
.	.	.	1cc
1G	1d	.	.
.	.	.	2bni\
=22	=22	=22	=22
2.C/	0c	2.e\	0cc
4D\	.	4f\	.
2E\	.	2g\	.
[2F\	.	4f\	.
.	.	4e\	.
=23	=23	=23	=23
4F\]	0r	4d\	1r
4E\	.	4c\	.
4D\	.	1c	.
4C/	.	.	.
1D	.	.	1ff
.	.	2Bni\	.
=24	=24	=24	=24
0C	0r	1.c	2ee\
.	.	.	1ee
.	.	4B-\	4dd\
.	.	4A/	4cc\
=25	=25	=25	=25
0r	0f	2B-\	2dd\
.	.	1A	1cc
.	.	4G/	4b-\
.	.	4F/	4a/
=26	=26	=26	=26
[0C	[0e	1.c	0g
.	.	4B-\	.
.	.	4A/	.
=27	=27	=27	=27
0C]	0e]	2G/	2r
.	.	1c	2.cc\
.	.	.	4dd\
.	.	2c\	2ee\
=28	=28	=28	=28
0D	0d	1A	2ff\
.	.	.	1dd
.	.	1B-	.
.	.	.	2ff\
=29	=29	=29	=29
1C	2.e\	1c	2ee\
.	.	.	2.gg\
.	4d\	.	.
2r	4e\	2.c\	.
.	4f\	.	4ff\
[2C/	[2g\	.	2ee\
.	.	4d\	.
=30	=30	=30	=30
4C/]	2g\]	4e\	4dd\
4D\	.	4f\	4cc\
4E\	4f\	1g	1cc
4F\	4e\	.	.
1G	1d	.	.
.	.	2g\	2bni\
=31	=31	=31	=31
1C	[0c	2e\	0cc
.	.	1g	.
2r	.	.	.
[2c\	.	[2e\	.
=32	=32	=32	=32
2c\]	0c]	2e\]	0r
1A	.	1c	.
[2F\	.	[2f\	.
=33	=33	=33	=33
2F\]	0r	2f\]	2r
1A	.	2c\	1cc
.	.	1c	.
2F\	.	.	[2a/
=34	=34	=34	=34
[0F	0r	2r	2a/]
.	.	2c\	1f
.	.	2d\	.
.	.	[2f\	[2cc\
=35	=35	=35	=35
0F]	0c	4f\]	4cc\]
.	.	4g\	4b-\
.	.	1a	4a/
.	.	.	4g/
.	.	.	2f/
.	.	4g\	[2cc\
.	.	4f\	.
=36	=36	=36	=36
0C	1.c	2e\	2cc\]
.	.	1f	4b-\
.	.	.	4a/
.	.	.	1g
.	2B-\	2e\	.
=37	=37	=37	=37
1r	2A/	1.f	0f
.	2G/	.	.
[1F	[1F	.	.
.	.	2e\	.
=38	=38	=38	=38
2F\]	1F]	2d\	1r
2E\	.	2c\	.
2D\	[1B-	[1d	[1f
2C/	.	.	.
=39	=39	=39	=39
0BB-	1B-]	1d]	1f]
.	1B-	1d	1f
=40	=40	=40	=40
0F	0A	0c	0f
=41	=41	=41	=41
0C	1.G	1r	1.e
.	.	1c	.
.	4F/	.	4d/
.	4E/	.	4c/
=42	=42	=42	=42
1r	2G/	1.g	2.e/
.	2.A/	.	.
.	.	.	4f/
1C	.	.	2g/
.	4B-\	.	.
.	2c\	4f\	2a/
.	.	4e\	.
=43	=43	=43	=43
1G	2d\	2d\	1b-
.	2B-\	2.e\	.
2F\	1c	.	2a/
.	.	4d\	.
2E\	.	[2c\	[2g/
=44	=44	=44	=44
1D	1F	2c\]	4g/]
.	.	.	4f/
.	.	2B-\	1f
1C	1G	1c	.
.	.	.	2e/
=45	=45	=45	=45
0Fl	0Fl	0cl	0fl
!!LO:LB:i:g=z
=46||	=46||	=46||	=46||
*>B	*>B	*>B	*>B
*clefF4	*clefGv2	*clefGv2	*clefG2
*k[b-]	*k[b-]	*k[b-]	*k[b-]
*M3/1	*M3/1	*M3/1	*M3/1
*met(C|3)	*met(C|3)	*met(C|3)	*met(C|3)
!!section: Pleni sunt celi
!!!OMD: Pleni sunt celi
0.r	0.r	1.A	0.r
.	.	2B-\	.
.	.	1G	.
=47	=47	=47	=47
0.r	0.r	0F	1.a
.	.	.	2b-\
.	.	1G	1g
=48	=48	=48	=48
0.r	0.r	2A/	0f
.	.	2B-\	.
.	.	2c\	.
.	.	2d\	.
.	.	1e	1g
=49	=49	=49	=49
0.r	0.r	0f	2a/
.	.	.	2b-\
.	.	.	2cc\
.	.	.	2dd\
.	.	1e	1ee
=50	=50	=50	=50
0.r	0.r	1d	1ff
.	.	2c\	2ee\
.	.	2B-\	2.dd\
.	.	1c	.
.	.	.	4cc\
.	.	.	2cc\
=51	=51	=51	=51
1r	0.r	1e	0cc
1r	.	0d	.
1G	.	.	1bni
=52	=52	=52	=52
1A	0.r	1c	0.cc
0c	.	1r	.
.	.	1c	.
=53	=53	=53	=53
1B-	0.r	1d	0.r
1.A	.	0f	.
2G\	.	.	.
=54	=54	=54	=54
0G	0.r	1e	0.r
.	.	1.d	.
1E	.	.	.
.	.	2c\	.
=55	=55	=55	=55
1F	0.r	0c	1cc
0D	.	.	1dd
.	.	1B-	1ff
=56	=56	=56	=56
1C	0.r	1c	1ee
1r	.	2c\	2ee\
.	.	1B-	1dd
1r	.	.	.
.	.	2B-\	2dd\
=57	=57	=57	=57
1r	0.r	1c	0cc
1r	.	1d	.
1G	.	1e	1b-
=58	=58	=58	=58
1F	0.r	1.f	1a
1.A	.	.	1.cc
.	.	2e\	.
.	.	1c	.
2G\	.	.	2b-\
=59	=59	=59	=59
1E	0.r	1.g	0g
1.G	.	.	.
.	.	2f\	.
.	.	[1d	1dd
2F\	.	.	.
=60	=60	=60	=60
0D	0.r	1d]	1.ff
.	.	1.a	.
.	.	.	2ee\
1A	.	.	[1cc
.	.	2g\	.
=61	=61	=61	=61
1.c	0.r	1e	1cc]
.	.	1.g	1g
2B-\	.	.	.
1G	.	.	[1b-
.	.	2f\	.
=62	=62	=62	=62
1.B-	0.r	1d	2b-\]
.	.	.	2a/
.	.	1.f	1f
2A\	.	.	.
[1F	.	.	1a
.	.	2e\	.
=63	=63	=63	=63
2F\]	0.r	1c	1.cc
2E\	.	.	.
1C	.	1.g	.
.	.	.	2b-\
[1G	.	.	1g
.	.	2f\	.
=64	=64	=64	=64
2G\]	0.r	2d\	1.dd
2F\	.	2e\	.
2D\	.	1.f	.
2E\	.	.	2cc\
[1F	.	.	2a/
.	.	2e\	2b-\
=65	=65	=65	=65
2F\]	0.r	2c\	0cc
2E\	.	2d\	.
2C/	.	2e\	.
2D\	.	2f\	.
1E	.	1g	1b-
=66	=66	=66	=66
1F	0.r	0f	1a
0C	.	.	0g
.	.	1e	.
=67	=67	=67	=67
*M2/1	*M2/1	*M2/1	*M2/1
*met(C|)	*met(C|)	*met(C|)	*met(C|)
1r	0r	0f	0f
2.F\	.	.	.
4G\	.	.	.
=68	=68	=68	=68
4A\	0A	0r	0r
4B-\	.	.	.
2.c\	.	.	.
4B-\	.	.	.
[2A\	.	.	.
=69	=69	=69	=69
2A\]	0c	0r	0r
4G\	.	.	.
4F\	.	.	.
1E	.	.	.
=70	=70	=70	=70
0D	1d	0r	1r
.	2d\	.	1a
.	[2f\	.	.
=71	=71	=71	=71
0A	2f\]	1r	0cc
.	2f\	.	.
.	1e	1a	.
=72	=72	=72	=72
1r	0d	0a	0dd
1D	.	.	.
=73	=73	=73	=73
0F	0r	0a	1r
.	.	.	1cc
=74	=74	=74	=74
0G	[0d	1r	1.b-
.	.	1g	.
.	.	.	4a/
.	.	.	4g/
=75	=75	=75	=75
2r	0d]	2f\	2a/
1G	.	2.g\	1b-
.	.	4f\	.
4F\	.	[2d\	4a/
4E\	.	.	4g/
=76	=76	=76	=76
2D\	1d	4d\]	2f/
.	.	4c\	.
1G	.	1B-	1b-
.	2e\	.	.
[2F\	[2d\	[2A/	2cc\
=77	=77	=77	=77
2F\]	2d\]	2A/]	2dd\
2E\	1c	1G	2ee\
1D	.	.	1ff
.	2Bni\	2F/	.
=78	=78	=78	=78
0C	0c	1G	1ee
.	.	2r	2ee\
.	.	[2g\	[2cc\
=79	=79	=79	=79
1C	1r	2g\]	2cc\]
.	.	1e	2cc\
1r	1c	.	2a/
.	.	2c\	[2cc\
=80	=80	=80	=80
1c	2c\	1c	2cc\]
.	1A	.	1f
2c\	.	1r	.
[2A\	2F/	.	[2cc\
=81	=81	=81	=81
2A\]	0F	1f	2cc\]
2F\	.	.	1a
1F	.	2f\	.
.	.	[2d\	2f/
=82	=82	=82	=82
2r	1r	2d\]	1f
1F	.	4c\	.
.	.	4B-\	.
.	1f	2d\	2r
4E\	.	4c\	[2f/
4D\	.	4B-\	.
=83	=83	=83	=83
2F\	1d	1A	4f/]
.	.	.	4g/
4E\	.	.	4a/
4D\	.	.	4b-\
2C/	2e\	2r	2cc\
[2BB-/	[2f\	[2d\	[2dd\
=84	=84	=84	=84
2BB-/]	4f\]	2d\]	2dd\]
.	4e\	.	.
2C/	4d\	2.g\	1cc
.	4c\	.	.
1G	1d	.	.
.	.	4f\	.
.	.	2g\	2bni\
=85	=85	=85	=85
2r	1c	2e\	2cc\
2F\	.	2f\	2a/
2G\	2r	2d\	2b-\
2E\	[2c\	2e\	2g/
=86	=86	=86	=86
2F\	2c\]	2c\	1a
1D	2.d\	1f	.
.	.	.	2f/
.	4c\	.	.
[2G\	4B-\	2d\	2g/
.	4A/	.	.
=87	=87	=87	=87
2G\]	2G/	2e\	2b-\
2F\	1A	1f	1a
1D	.	.	.
.	2A/	2f\	2f/
=88	=88	=88	=88
2r	2B-\	2d\	2g/
2G\	2G/	2e\	2b-\
2F\	1A	1f	2a/
2D\	.	.	2f/
=89	=89	=89	=89
1G	2B-\	2d\	2g/
.	2G/	2e\	2b-\
2F\	2A/	2f\	2a/
2G\	2B-\	2d\	[2g/
=90	=90	=90	=90
2C/	2c\	2c\	4g/]
.	.	.	4c/
2D\	2F/	2B-\	1f
1C	1G	1c	.
.	.	.	2e/
=91	=91	=91	=91
1r	[0Fl	[0cl	[0fl
1F	.	.	.
=92	=92	=92	=92
0Fl	0F]	0c]	0f]
!!LO:LB:i:g=z
=93||	=93||	=93||	=93||
*>C	*>C	*>C	*>C
*clefF4	*clefGv2	*clefGv2	*clefG2
*k[b-]	*k[b-]	*k[b-]	*k[b-]
*M2/1	*M2/1	*M2/1	*M2/1
*met(C|)	*met(C|)	*met(C|)	*met(C|)
!!section: Benedictus
!!!OMD: Benedictus
0r	0r	1f	1r
.	.	2e\	1cc
.	.	2c\	.
=94	=94	=94	=94
0r	0r	2d\	2b-\
.	.	2e\	2g/
.	.	1f	2a/
.	.	.	2b-\
=95	=95	=95	=95
0r	0r	1e	1cc
.	.	2r	1b-
.	.	[2g\	.
=96	=96	=96	=96
0r	0r	2g\]	2r
.	.	2f\	1dd
.	.	2d\	.
.	.	2e\	2cc\
=97	=97	=97	=97
0r	0r	2f\	2a/
.	.	2g\	2b-\
.	.	2a\	2cc\
.	.	[2g\	2dd\
=98	=98	=98	=98
0r	0r	2g\]	2ee\
.	.	4f\	1cc
.	.	4e\	.
.	.	1d	.
.	.	.	2bni\
=99	=99	=99	=99
2r	0r	1c	0cc
1c	.	.	.
.	.	2r	.
2A\	.	2c\	.
=100	=100	=100	=100
2B-\	0r	2d\	0r
2c\	.	2e\	.
2d\	.	2f\	.
[2c\	.	[2g\	.
=101	=101	=101	=101
2c\]	0r	2g\]	0r
4B-\	.	1f	.
4A\	.	.	.
1G	.	.	.
.	.	2e\	.
=102	=102	=102	=102
1F	0r	0f	2r
.	.	.	1cc
2r	.	.	.
2F\	.	.	2a/
=103	=103	=103	=103
2G\	0r	2r	2b-\
2A\	.	2e\	2cc\
2B-\	.	2d\	2dd\
2c\	.	[2g\	[2cc\
=104	=104	=104	=104
1F	0r	2g\]	2cc\]
.	.	1f	4b-\
.	.	.	4a/
1c	.	.	1g
.	.	2e\	.
=105	=105	=105	=105
2r	0r	1f	1f
2F\	.	.	.
2G\	.	1r	2r
2A\	.	.	2cc\
=106	=106	=106	=106
2B-\	0r	2r	2dd\
2c\	.	2e\	2ee\
2F\	.	[1a	2ff\
2c\	.	.	[2gg\
=107	=107	=107	=107
1d	0r	2a\]	2gg\]
.	.	4g\	1ff
.	.	4f\	.
1c	.	1g	.
.	.	.	2ee\
=108	=108	=108	=108
1F	0r	0f	2ff\
.	.	.	4ee\
.	.	.	4dd\
2r	.	.	2cc\
2F\	.	.	[2ff\
=109	=109	=109	=109
2G\	0r	0r	2ff\]
2A\	.	.	2ee\
2B-\	.	.	2dd\
[2c\	.	.	[2ee\
=110	=110	=110	=110
4c\]	0r	1r	4ee\]
4B-\	.	.	4dd\
2c\	.	.	1cc
1d	.	1f	.
.	.	.	2bni\
=111	=111	=111	=111
1c	0r	2e\	0cc
.	.	1e	.
2r	.	.	.
2C/	.	4d\	.
.	.	4c\	.
=112	=112	=112	=112
2D\	0r	2.B-\	0r
2E\	.	.	.
.	.	4c\	.
2F\	.	2A/	.
2G\	.	[2d\	.
=113	=113	=113	=113
1C	0r	2d\]	0r
.	.	1c	.
1D	.	.	.
.	.	2Bni\	.
=114	=114	=114	=114
2.C/	0r	0c	2.cc\
4D\	.	.	4b-\
2E\	.	.	4a/
.	.	.	4g/
[2F\	.	.	[2a/
=115	=115	=115	=115
4F\]	0r	0r	2a/]
4E\	.	.	.
1D	.	.	4g/
.	.	.	4f/
.	.	.	1e
2C/	.	.	.
=116	=116	=116	=116
4D\	0r	2.f\	1d
4E\	.	.	.
4F\	.	.	.
4G\	.	4e\	.
2A\	.	4d\	2r
.	.	4c\	.
[2B-\	.	[2d\	2dd\
=117	=117	=117	=117
4B-\]	0r	2d\]	1dd
4A\	.	.	.
1G	.	4c\	.
.	.	4B-\	.
.	.	1A	1cc
2F#i\	.	.	.
=118	=118	=118	=118
0G	0r	1G	2b-\
.	.	.	4cc\
.	.	.	4dd\
.	.	2r	2ee-i\
.	.	2g\	[2dd\
=119	=119	=119	=119
0r	0r	1g	2dd\]
.	.	.	4cc\
.	.	.	4b-\
.	.	1f	1a
=120	=120	=120	=120
2r	0r	2e\	1g
2.c\	.	4f\	.
.	.	4g\	.
.	.	2a\	2r
4B-\	.	.	.
4G\	.	[2g\	[2dd\
4A\	.	.	.
=121	=121	=121	=121
2B-\	0r	2g\]	2dd\]
1c	.	4f\	2ee\
.	.	4e\	.
.	.	1d	1ff
2Bni\	.	.	.
=122	=122	=122	=122
1c	0r	1c	1ee
2B-\	.	[1g	2dd\
[2c\	.	.	[2ee\
=123	=123	=123	=123
4c\]	0r	1g]	4ee\]
8B-\L	.	.	4ff\
8A\J	.	.	.
2G\	.	.	2gg\
1F	.	1a	2cc\
.	.	.	2ff\
=124	=124	=124	=124
2.G\	0r	2.g\	2ee\
.	.	.	1dd
4A\	.	4f\	.
2B-\	.	2d\	.
2c\	.	2e\	[2cc\
=125	=125	=125	=125
1F	0r	2c\	2cc\]
.	.	1f	4b-\
.	.	.	4a/
2r	.	.	1g
2c\	.	2e\	.
=126	=126	=126	=126
2d\	0r	1f	1f
2B-\	.	.	.
2c\	.	1r	2e/
[2d\	.	.	[2f/
=127	=127	=127	=127
4d\]	0r	0r	4f/]
4c\	.	.	4e/
1c	.	.	4d/
.	.	.	4c/
.	.	.	1d
2Bni\	.	.	.
=128	=128	=128	=128
1c	0r	1.g	2.c/
.	.	.	4d/
2r	.	.	2e/
2F\	.	[2a\	2f/
=129	=129	=129	=129
1c	0r	4a\]	2e/
.	.	4g\	.
.	.	4f\	1a
.	.	4e\	.
2d\	.	1d	.
2B-\	.	.	[2g/
=130	=130	=130	=130
2c\	0r	2e\	2g/]
2.d\	.	2.f\	2f/
.	.	.	2d/
4c\	.	4e\	.
[2c\	.	4d\	2e/
.	.	4c\	.
=131	=131	=131	=131
2c\]	0r	1d	1f
2Bni\	.	.	.
[1c	.	2r	1e
.	.	2c\	.
=132	=132	=132	=132
0c]	0r	2g\	2r
.	.	1a	2.cc\
.	.	.	4dd\
.	.	2g\	2ee\
=133	=133	=133	=133
2r	0r	2f\	1ff
2F\	.	2a\	.
2c\	.	2g\	2ee\
2d\	.	2f\	[2ff\
=134	=134	=134	=134
2B-\	0r	1g	2ff\]
2c\	.	.	2ee\
2d\	.	2r	2ff\
2B-\	.	[2g\	2dd\
=135	=135	=135	=135
1c	0r	2g\]	2ee\
.	.	2g\	2cc\
1F	.	1a	1ff
=136	=136	=136	=136
0cl	0r	0gl	0eel
!!LO:LB:i:g=z
=137||	=137||	=137||	=137||
*>D	*>D	*>D	*>D
*clefF4	*clefGv2	*clefGv2	*clefG2
*k[b-]	*k[b-]	*k[b-]	*k[b-]
*M3/1	*M3/1	*M3/1	*M3/1
*met(O|)	*met(O|)	*met(O|)	*met(O|)
!!section: Osanna
!!!OMD: Osanna
1.F	0.r	1.f	0.r
1.G	.	2e\	.
.	.	1d	.
=138	=138	=138	=138
1.A	1.c	1c	1.cc
.	.	1r	.
2G\	1.d	.	2b-\
2.F\	.	1r	1a
4E\	.	.	.
=139	=139	=139	=139
0C	0e	2r	1g
.	.	2G/	.
.	.	2.c\	2a/
.	.	.	2.cc\
.	.	4d\	.
1A	1c	2e\	.
.	.	.	4b-\
.	.	[2f\	4a/
.	.	.	4g/
=140	=140	=140	=140
1B-	1.d	4f\]	1f
.	.	4e\	.
.	.	4d\	.
.	.	4c\	.
0G	.	0B-	1g
.	1.e	.	.
.	.	.	1b-
=141	=141	=141	=141
1F	1f	2c\	2a/
.	.	2F/	1dd
1r	4f\	1A	.
.	4e\	.	.
.	4d\	.	1cc
.	4c\	.	.
2r	1d	1G	.
2G\	.	.	2b-\
=142	=142	=142	=142
2A\	0c	2r	0cc
1F	.	2.A/	.
.	.	4B-\	.
4E\	.	1c	.
4D\	.	.	.
2C/	1r	.	1r
[2F\	.	4B-\	.
.	.	4A/	.
=143	=143	=143	=143
2F\]	0.r	4G/	1r
.	.	4A/	.
2E\	.	4B-\	.
.	.	4c\	.
4F\	.	2d\	2r
4E\	.	.	.
4D\	.	1c	1ff
4C/	.	.	.
1D	.	.	.
.	.	2Bni\	2ff\
=144	=144	=144	=144
1C	1r	1.c	1ee
1r	2r	.	0dd
.	1f	4B-\	.
.	.	4A/	.
1r	.	1B-	.
.	2f\	.	.
=145	=145	=145	=145
1C	1e	1c	1.cc
0G	0d	1r	.
.	.	.	4bni\
.	.	.	4a/
.	.	1r	1bni
=146	=146	=146	=146
2C/	[0.c	2.c\	1cc
2.c\	.	.	.
.	.	4B-\	.
.	.	4A/	2r
4B-\	.	4G/	.
2A\	.	2F/	2.cc\
2G\	.	2E/	.
.	.	.	4b-\
2F\	.	[2c\	2a/
=147	=147	=147	=147
2.c\	0.c]	4c\]	2g/
.	.	4B-\	.
.	.	4A/	2f/
4B-\	.	4G/	.
2A\	.	2F/	2.cc\
2G\	.	2E/	.
.	.	.	4b-\
2F\	.	2F/	2a/
2E\	.	2G/	2g/
=148	=148	=148	=148
0.D	[0.f	1A	2.dd\
.	.	.	4cc\
.	.	2.d\	2b-\
.	.	.	2a/
.	.	4c\	.
.	.	2B-\	2.ff\
.	.	2A/	.
.	.	.	4ee\
=149	=149	=149	=149
1r	0f]	2.f\	2dd\
.	.	.	2cc\
.	.	4e\	.
1D	.	1d	2b-\
.	.	.	2a/
2E\	1e	2r	2g/
2C/	.	[2g\	[2cc\
=150	=150	=150	=150
1G	1d	2g\]	2cc\]
.	.	2g\	2b-\
2A\	1c	2e\	2cc\
2F\	.	1f	2a/
1G	1B-	.	2b-\
.	.	2e\	2g/
=151	=151	=151	=151
1F	1c	1f	1a
2r	2r	2r	2r
2F\	1c	1f	2a/
1G	.	.	2b-\
.	2B-\	2e\	2g/
=152	=152	=152	=152
2F\	2c\	2f\	2a/
2G\	2B-\	2e\	2.b-\
1F	1c	1f	.
.	.	.	4g/
.	.	.	2a/
2G\	2B-\	2d\	2b-\
2E\	[2c\	2g\	2g/
=153	=153	=153	=153
2F\	2c\]	4f\	2a/
.	.	4e\	.
2G\	2B-\	2d\	4b-\
.	.	.	4a/
0C	2c\	[0cl	4g/
.	.	.	4f/
.	2A/	.	1f
.	1G	.	.
.	.	.	2e/
=154	=154	=154	=154
0.Fl	0.Fl	0.c]	0.fl
==	==	==	==
*-	*-	*-	*-
!!!RDF**kern: l=long note in original notation
!!!RDF**kern: i=editorial accidental
!!!RDF**kern: V=start of tuplet marker
!!!RDF**kern: Z=end of tuplet marker
!!!ENC:	Chris Gage 09-18-2012
!!!END:	2012/09/18/
!!!EED:	Jesse Rodin
!!!EEV:	2012/09/28/
!!!ONB:	Translated from MusicXML and edited on 2012/09/28/ by Craig Sapp
!!muse2ps: T^@{OPR}^u^@{ONM}{. }@{OTL}^C^@{COM}^i2I150v85,85,85,150c150
